icons/line/hashtag.svg

<svg width="24" height="24" viewBox="0 0 24 24" fill="none" xmlns="http://www.w3.org/2000/svg">
<path fill-rule="evenodd" clip-rule="evenodd" d="M11.9701 4.24253C12.1041 3.70673 11.7783 3.1638 11.2425 3.02985C10.7067 2.8959 10.1638 3.22166 10.0299 3.75746L8.96922 7.99999H5C4.44772 7.99999 4 8.44771 4 8.99999C4 9.55228 4.44772 9.99999 5 9.99999H8.46922L7.46922 14H3C2.44772 14 2 14.4477 2 15C2 15.5523 2.44772 16 3 16H6.96922L6.02986 19.7575C5.89591 20.2933 6.22167 20.8362 6.75746 20.9701C7.29326 21.1041 7.83619 20.7783 7.97014 20.2425L9.03078 16L12.9692 16L12.0299 19.7575C11.8959 20.2933 12.2217 20.8362 12.7575 20.9701C13.2933 21.1041 13.8362 20.7783 13.9701 20.2425L15.0308 16H19C19.5523 16 20 15.5523 20 15C20 14.4477 19.5523 14 19 14H15.5308L16.5308 9.99999H21C21.5523 9.99999 22 9.55228 22 8.99999C22 8.44771 21.5523 7.99999 21 7.99999H17.0308L17.9701 4.24253C18.1041 3.70673 17.7783 3.1638 17.2425 3.02985C16.7067 2.8959 16.1638 3.22166 16.0299 3.75746L14.9692 7.99999L11.0308 7.99999L11.9701 4.24253ZM10.5308 9.99999L9.53078 14L13.4692 14L14.4692 9.99999L10.5308 9.99999Z" fill="currentColor"/>
</svg>

<svg width="24" height="24" fill="none" xmlns="http://www.w3.org/2000/svg"><path fill-rule="evenodd" clip-rule="evenodd" d="M11.97 4.243a1 1 0 10-1.94-.486L8.97 8H5a1 1 0 000 2h3.47l-1 4H3a1 1 0 100 2h3.97l-.94 3.758a1 1 0 101.94.485L9.03 16h3.94l-.94 3.758a1 1 0 101.94.485L15.03 16H19a1 1 0 100-2h-3.47l1-4H21a1 1 0 100-2h-3.97l.94-3.757a1 1 0 10-1.94-.486L14.97 8h-3.94l.94-3.757zM10.53 10l-1 4h3.94l1-4h-3.94z" fill="currentColor"/></svg>
